X: 1
T: Old Dick's
M: 2/4
L: 1/8
R: polka
K: Dmaj
FA G>E | FA AG |(3FGA BG | FD DF | G>F EF | GA Bd | ec dB| cA GE |
FA G>E | FA AG |(3FGA BG | FD DF | G>F EF | GA Bd | cA Bc| dc de | 
fd e>d | cA AB | =ce d=c | BG GA | F>G AB| cd ef | eB dc |  A2 d>e | 
fd d>f | e=c =c>e | dB ed | cA AF | (3EFG A>B | cd ef | af ge | d2 d2 |
